!!!!SEGMENT: pl-wtm--r-585-m_moniuszko-stanislaw--agnus-dei.krn
!!!cenid: 18xx:2718
!!!COM: Moniuszko, Stanisław
!!!COM-rismID: pe30008351
!!!CDT: 1819/05/05-1872/06/04
!!!CNT: Polish
!!!OTL: Agnus Dei
!!!PDT:
!!!AGN: Sacred
!!!SMS-siglum: PL-Wtm
!!!SMS-shelfmark: R 585/M
!!!SMS-shelfwork: W
!!!SMS-variant:
!!!SMS-altvar:
!!!NIFC-rismSourceID: 1001083917
!!!NIFC-rismChildID: 1001083917
!!!NIFC-islandoraID:
!!!URL-pdf-islandora:
!!!URL-scan:
!!!IIIF:
!!!ONB-nifc:
!!!AIN: 1 alto 1 empty 1 organ 1 tenor 1 vox
!!!key:
**kern	**kern	**dynam	**kern	**text	**dynam	**kern	**text	**dynam	**kern	**text	**dynam	**kern	**text	**dynam
*part5	*part5	*part5	*part4	*part4	*part4	*part3	*part3	*part3	*part2	*part2	*part2	*part1	*part1	*part1
*staff6	*staff5	*	*staff4	*staff4	*	*staff3	*staff3	*	*staff2	*staff2	*	*staff1	*staff1	*
*Iorgan	*Iempty	*	*Iempty	*	*	*Itenor	*	*	*Ialto	*	*	*Ivox	*	*
*I"[Organo]	*	*	*I"[Basso]	*	*	*I"[Tenore]	*	*	*I"[Alto]	*	*	*I"[Canto]	*	*
*clefF4	*clefG2	*	*clefF4	*	*	*clefG2	*	*	*clefG2	*	*	*clefG2	*	*
*	*	*	*	*	*	*ITrd7c12	*	*	*	*	*	*	*	*
*k[b-]	*k[b-]	*	*k[b-]	*	*	*k[b-]	*	*	*k[b-]	*	*	*k[b-]	*	*
*d:	*d:	*	*d:	*	*	*d:	*	*	*d:	*	*	*d:	*	*
*M2/2	*M2/2	*	*M2/2	*	*	*M2/2	*	*	*M2/2	*	*	*M2/2	*	*
*met(c|)	*met(c|)	*	*met(c|)	*	*	*met(c|)	*	*	*met(c|)	*	*	*met(c|)	*	*
=1	=1	=1	=1	=1	=1	=1	=1	=1	=1	=1	=1	=1	=1	=1
1r	8r	.	1r	.	.	1r	.	.	1r	.	.	1r	.	.
!	!	!LO:DY:b:rj	!	!	!	!	!	!	!	!	!	!	!	!
.	(>8ff\L	p	.	.	.	.	.	.	.	.	.	.	.	.
.	8ee\	.	.	.	.	.	.	.	.	.	.	.	.	.
.	8dd\J	.	.	.	.	.	.	.	.	.	.	.	.	.
!	!LO:TX:a:t=P:mixedbeam:problem	!	!	!	!	!	!	!	!	!	!	!	!	!
.	8cc#X\L	.	.	.	.	.	.	.	.	.	.	.	.	.
.	8dd\	.	.	.	.	.	.	.	.	.	.	.	.	.
.	8f/	.	.	.	.	.	.	.	.	.	.	.	.	.
.	8b-/J	.	.	.	.	.	.	.	.	.	.	.	.	.
=2	=2	=2	=2	=2	=2	=2	=2	=2	=2	=2	=2	=2	=2	=2
1r	8a/L	.	1r	.	.	1r	.	.	1r	.	.	1r	.	.
.	8f/	.	.	.	.	.	.	.	.	.	.	.	.	.
.	8d/	.	.	.	.	.	.	.	.	.	.	.	.	.
.	8B-/J	.	.	.	.	.	.	.	.	.	.	.	.	.
.	(<8A/L	.	.	.	.	.	.	.	.	.	.	.	.	.
.	8d/))	.	.	.	.	.	.	.	.	.	.	.	.	.
.	(<8d/	.	.	.	.	.	.	.	.	.	.	.	.	.
.	8e/J)	.	.	.	.	.	.	.	.	.	.	.	.	.
=3	=3	=3	=3	=3	=3	=3	=3	=3	=3	=3	=3	=3	=3	=3
*2\right	*2\right	*	*2\right	*color:red	*	*2\right	*color:red	*	*2\right	*color:red	*	*2\right	*color:red	*
!	!	!	!	!	!LO:DY:a:rj	!	!	!LO:DY:a:rj	!	!	!LO:DY:a:rj	!LO:TX:a:t=P:all\right:problem	!	!LO:DY:a:rj
1r	4f/	.	2D\	Z krzy-	p	2A/	Z krzy-	p	2d/	Z krzy-	p	2f/	Z krzy-	p
.	4r	.	.	.	.	.	.	.	.	.	.	.	.	.
*	*	*	*	*ij	*	*	*ij	*	*	*ij	*	*	*	*
.	2r	.	4D\	-ża	.	4A/	-ża	.	4d/	-ża	.	4f/	-ża	.
.	.	.	4D\	bo-	.	4B-\	bo-	.	4d/	bo-	.	4f/	bo-	.
=4	=4	=4	=4	=4	=4	=4	=4	=4	=4	=4	=4	=4	=4	=4
1r	1r	.	2G\	-le-	.	2B-\	-le-	.	2d/	-le-	.	2f/	-le-	.
.	.	.	2G\	-ści	.	2B-\	-ści	.	2c#X/	-ści	.	2e/	-ści	.
=5	=5	=5	=5	=5	=5	=5	=5	=5	=5	=5	=5	=5	=5	=5
1r	1r	.	4.F\	o	.	4.A/	o	.	4.d/	o	.	4.a/	o	.
.	.	.	8F\	ba-	.	8A/	ba-	.	8d/	ba-	.	8a/	ba-	.
.	.	.	4F\	-ran-	.	4G#X/	-ran-	.	4d/	-ran-	.	4b-/	-ran-	.
.	.	.	4F\	-ku	.	4A/	-ku	.	4d/	-ku	.	4a/	-ku	.
=6	=6	=6	=6	=6	=6	=6	=6	=6	=6	=6	=6	=6	=6	=6
1r	1r	.	2.E\	Bo-	.	2B-\	Bo-	.	2d/	Bo-	.	2a/	Bo-	.
.	.	.	.	.	.	2B-\	-ży	.	2d/	-ży	.	2g/	-ży	.
.	.	.	4D\	-ży	.	.	.	.	.	.	.	.	.	.
=7	=7	=7	=7	=7	=7	=7	=7	=7	=7	=7	=7	=7	=7	=7
1r	1r	.	2C#X/	spój-	.	2A/	spój-	.	2e/	spój-	.	(>2ee\	spój-	.
.	.	.	4C#/	-rzyj	.	4A/	-rzyj	.	4e/	-rzyj	.	4g/)	-rzyj	.
.	.	.	4C#/	na	.	4B-/	na	.	4e/	na	.	4g/	na	.
=8	=8	=8	=8	=8	=8	=8	=8	=8	=8	=8	=8	=8	=8	=8
1r	1r	.	2.Cn/	zie-	.	(<4B-/	zie-	.	2e/	zie-	.	2.g/	zie-	.
.	.	.	.	.	.	4A/)	.	.	.	.	.	.	.	.
.	.	.	.	.	.	2A/	-mię,	.	2e-X/	-mię,	.	.	.	.
.	.	.	4C/	-mię,	.	.	.	.	.	.	.	4f#X/	-mię,	.
*	*	*	*	*Xij	*	*	*Xij	*	*	*Xij	*	*	*	*
!!LO:LB:g=original
=9	=9	=9	=9	=9	=9	=9	=9	=9	=9	=9	=9	=9	=9	=9
1r	[<1d	.	4BB-/	u-	.	4G/	u-	.	2d/	u-	.	(<4g/	u-	.
*	*	*	*	*ij	*	*	*	*	*	*ij	*	*	*	*
.	.	.	2AA/	-słysz	.	2F#X/	-słysz	.	.	.	.	4a/)	.	.
.	.	.	.	.	.	.	.	.	4d/	-słysz	.	4cc\	-słysz	.
.	.	.	4AA/	wo-	.	8G/L	wo-	.	4d/	wo-	.	4b-\	wo-	.
.	.	.	.	.	.	8Fn/J	.	.	.	.	.	.	.	.
=10	=10	=10	=10	=10	=10	=10	=10	=10	=10	=10	=10	=10	=10	=10
1r	4d/]	.	2AA/	-ła-	.	2E/	-ła-	.	2A/	-ła-	.	2a\	-ła-	.
*	*	*	*	*Xij	*	*	*	*	*	*Xij	*	*	*	*
.	8c/L	.	.	.	.	.	.	.	.	.	.	.	.	.
.	8Bn/J	.	.	.	.	.	.	.	.	.	.	.	.	.
.	4c/	.	4AA/	-nie	.	4A/	-nie	.	4A/	-nie	.	4a\	-nie	.
.	4A/	.	4r	.	.	4r	.	.	4r	.	.	4r	.	.
=11	=11	=11	=11	=11	=11	=11	=11	=11	=11	=11	=11	=11	=11	=11
*^	*^	*	*	*	*	*	*	*	*	*	*	*	*	*
*	*^	*	*	*	*	*	*	*	*	*	*	*	*	*	*	*
4F/	1r	[<1AA	[>1a	2d\	.	1r	.	.	1r	.	.	1r	.	.	1r	.	.
8E/L	.	.	.	.	.	.	.	.	.	.	.	.	.	.	.	.	.
8D/J	.	.	.	.	.	.	.	.	.	.	.	.	.	.	.	.	.
4E/	.	.	.	4c\	.	.	.	.	.	.	.	.	.	.	.	.	.
4C/	.	.	.	[>4e\	.	.	.	.	.	.	.	.	.	.	.	.	.
=12	=12	=12	=12	=12	=12	=12	=12	=12	=12	=12	=12	=12	=12	=12	=12	=12	=12
1F	1r	1AA_<	1a]	4e\]	.	1r	.	.	1r	.	.	1r	.	.	1r	.	.
.	.	.	.	8d\L	.	.	.	.	.	.	.	.	.	.	.	.	.
.	.	.	.	8c\J	.	.	.	.	.	.	.	.	.	.	.	.	.
.	.	.	.	4d\	.	.	.	.	.	.	.	.	.	.	.	.	.
.	.	.	.	4Bn\	.	.	.	.	.	.	.	.	.	.	.	.	.
=13	=13	=13	=13	=13	=13	=13	=13	=13	=13	=13	=13	=13	=13	=13	=13	=13	=13
1E	1r	1AA]	4a/	[<1c	.	1r	.	.	1r	.	.	1r	.	.	1r	.	.
.	.	.	8g/L	.	.	.	.	.	.	.	.	.	.	.	.	.	.
.	.	.	8f/J	.	.	.	.	.	.	.	.	.	.	.	.	.	.
.	.	.	4g/	.	.	.	.	.	.	.	.	.	.	.	.	.	.
.	.	.	4e/	.	.	.	.	.	.	.	.	.	.	.	.	.	.
*	*v	*v	*	*	*	*	*	*	*	*	*	*	*	*	*	*	*
=14	=14	=14	=14	=14	=14	=14	=14	=14	=14	=14	=14	=14	=14	=14	=14	=14
*	*	*	*^	*	*	*	*	*	*	*	*	*	*	*	*	*
4A/	1rBB	1cc	1c]	2f\	.	1r	.	.	1r	.	.	1r	.	.	1r	.	.
8G/L	.	.	.	.	.	.	.	.	.	.	.	.	.	.	.	.	.
8F/J	.	.	.	.	.	.	.	.	.	.	.	.	.	.	.	.	.
4E/	.	.	.	4g\	.	.	.	.	.	.	.	.	.	.	.	.	.
4D/	.	.	.	4f\	.	.	.	.	.	.	.	.	.	.	.	.	.
*	*	*	*v	*v	*	*	*	*	*	*	*	*	*	*	*	*	*
=15	=15	=15	=15	=15	=15	=15	=15	=15	=15	=15	=15	=15	=15	=15	=15	=15
!	!	!	!	!	!	!	!LO:DY:a:rj	!	!	!LO:DY:a:rj	!	!	!LO:DY:a:rj	!	!	!LO:DY:a:rj
*ped	*	*	*	*	*	*	*	*	*	*	*	*	*	*	*	*
[>1G	1C	2ee/	1e	.	2C^</	Niech	mf	2G^</	Niech	mf	2e^</	Niech	mf	2ee^>\	Niech	mf
.	.	4dd/	.	.	4C/	się	.	4G/	się	.	4e/	się	.	4dd\	się	.
.	.	4cc/	.	.	4C/	Twe	.	4G/	Twe	.	4e/	Twe	.	4cc\	Twe	.
=16	=16	=16	=16	=16	=16	=16	=16	=16	=16	=16	=16	=16	=16	=16	=16	=16
4G/]	1D	2cc/	1f	.	2D\	ser-	.	(<4G/	ser-	.	2f/	ser-	.	2cc\	ser-	.
4A/	.	.	.	.	.	.	.	4A/)	.	.	.	.	.	.	.	.
[>2B-/	.	4b-/	.	.	4D\	-ce	.	[>2B-\	-ce	.	4f/	-ce	.	4b-\	-ce	.
.	.	4dd/	.	.	4D\	dla	.	.	.	.	4f/	dla	.	4dd\	dla	.
=17	=17	=17	=17	=17	=17	=17	=17	=17	=17	=17	=17	=17	=17	=17	=17	=17
4B-/]	1E	2dd/	1g	.	2E\	dzie-	.	4B-\]	.	.	2g^</	dzie-	.	2dd^>\	dzie-	.
4G/	.	.	.	.	.	.	.	4G/	o-	.	.	.	.	.	.	.
[>2c/	.	4cc/	.	.	4E\	-ci	.	(>[<2c\	-two-	.	4g/	-ci	.	4cc\	-ci	.
.	.	4b-/	.	.	4E\	o-	.	.	.	.	4g/	o-	.	4b-\	o-	.
=18	=18	=18	=18	=18	=18	=18	=18	=18	=18	=18	=18	=18	=18	=18	=18	=18
*	*2\right	*	*	*	*	*	*	*	*	*	*	*	*	*	*	*
4c/]	2.F\	2a/	2f\	.	2.F\	-two-	.	4c\]	.	.	2f/	-two-	.	2a\	-two-	.
4d/	.	.	.	.	.	.	.	4d\	.	.	.	.	.	.	.	.
!LO:TX:a:t=P:problem=od nuty wychodzi łuk/ligatura	!	!	!	!	!	!	!	!	!	!	!	!	!	!	!	!
2c/	.	2cc/	2g\	.	.	.	.	2c\)	-rzy	.	2g/	-rzy	.	2cc\	-rzy	.
.	4E\	.	.	.	4E\	-rzy	.	.	.	.	.	.	.	.	.	.
*v	*v	*	*	*	*	*	*	*	*	*	*	*	*	*	*	*
*	*v	*v	*	*	*	*	*	*	*	*	*	*	*	*	*
!!LO:PB:g=original
=19	=19	=19	=19	=19	=19	=19	=19	=19	=19	=19	=19	=19	=19	=19
1ryy	1ryy	.	2D\	zli-	.	[>1c	zli-	.	2f/	zli-	.	2ff\	zli-	.
.	.	.	4E\	-tuj	.	.	.	.	2g/	-tuj	.	4cc\	-tuj	.
.	.	.	4E\	się	.	.	.	.	.	.	.	4cc\	się	.
=20	=20	=20	=20	=20	=20	=20	=20	=20	=20	=20	=20	=20	=20	=20
1ryy	1ryy	.	2F\	oj-	.	4c\]	.	.	2f/	się	.	2a\	oj-	.
.	.	.	.	.	.	4d\	-tuj	.	.	.	.	.	.	.
.	.	.	4E\	-cze!	.	2c\	się	.	2g/	nad	.	4cc\	-cze!	.
.	.	.	4E\	wy-	.	.	.	.	.	.	.	4cc\	wy-	.
=21	=21	=21	=21	=21	=21	=21	=21	=21	=21	=21	=21	=21	=21	=21
1ryy	1ryy	.	2D\	-słu-	.	4c\	nad	.	2f/	na-	.	(>2ff\	-słu-	.
.	.	.	.	.	.	4Bn\	na-	.	.	.	.	.	.	.
.	.	.	4E\	-chaj	.	4G/	.	.	2g/	-mi	.	4cc\)	-chaj	.
.	.	.	4E\	nas	.	8B-X/L	-mi	.	.	.	.	4cc\	nas	.
.	.	.	.	.	.	8A/J	.	.	.	.	.	.	.	.
=22	=22	=22	=22	=22	=22	=22	=22	=22	=22	=22	=22	=22	=22	=22
1ryy	1ryy	.	2F\	pa-	.	2G#X/	pa-	.	2f/	pa-	.	2dd\	pa-	.
.	.	.	8F\	-nie!	.	8A/	-nie!	.	8f/	-nie!	.	8cc\	-nie!	.
.	.	.	8r	.	.	8r	.	.	8r	.	.	8r	.	.
!	!	!	!	!	!LO:DY:a:rj	!	!	!LO:DY:a:rj	!	!	!LO:DY:a:rj	!	!	!LO:DY:a:rj
.	.	.	4AA/	wy-	f	4c\	wy-	f	4f/	wy-	f	4ff\	wy-	f
=23	=23	=23	=23	=23	=23	=23	=23	=23	=23	=23	=23	=23	=23	=23
*	*	*	*	*ij	*	*	*ij	*	*	*ij	*	*	*	*
1ryy	1ryy	.	2BB-/	-słu-	.	2G/	-słu-	.	2f/	-słu-	.	(>4ee\	-słu-	.
.	.	.	.	.	.	.	.	.	.	.	.	4dd\)	.	.
.	.	.	8BB-/	-chaj!	.	8G/	-chaj!	.	8f/	-chaj!	.	8g/	-chaj!	.
.	.	.	8r	.	.	8r	.	.	8r	.	.	8r	.	.
.	.	.	4B-\	wy-	.	4d\	wy-	.	4g/	wy-	.	4ff\	wy-	.
=24	=24	=24	=24	=24	=24	=24	=24	=24	=24	=24	=24	=24	=24	=24
1ryy	1ryy	.	2B-\	-słu-	.	(>4c#X\	-słu-	.	2g/	-słu-	.	(>4ee\	-słu-	.
.	.	.	.	.	.	4d\)	.	.	.	.	.	4dd\)	.	.
.	.	.	4BB-/	-chaj	.	4d\	-chaj	.	4g/	-chaj	.	4b-/	-chaj	.
.	.	.	4BB-/	nas	.	4B-\	nas	.	4g/	nas	.	4g/	nas	.
=25	=25	=25	=25	=25	=25	=25	=25	=25	=25	=25	=25	=25	=25	=25
1ryy	1ryy	.	1C	pa-	.	(<4A/	pa-	.	(<4f/	pa-	.	1cc	pa-	.
*	*	*	*	*Xij	*	*	*Xij	*	*	*Xij	*	*	*	*
.	.	.	.	.	.	8B-/L	.	.	4d/	.	.	.	.	.
.	.	.	.	.	.	8A/J	.	.	.	.	.	.	.	.
.	.	.	.	.	.	4G/)	.	.	2e/)	.	.	.	.	.
.	.	.	.	.	.	4c\	.	.	.	.	.	.	.	.
=26	=26	=26	=26	=26	=26	=26	=26	=26	=26	=26	=26	=26	=26	=26
1ryy	4cc/	.	4F\	-nie!	.	4F/	-nie!	.	4f/	-nie!	.	4a/	-nie!	.
.	8dd/L	.	4r	.	.	4r	.	.	4r	.	.	4r	.	.
.	8cc/J	.	.	.	.	.	.	.	.	.	.	.	.	.
!	!	!	!	!	!LO:DY:a	!	!	!	!	!	!	!	!	!
.	4a/	.	[>2F\	pa-	pp	4r	.	.	4r	.	.	4r	.	.
!	!	!	!	!	!	!	!	!LO:DY:a:rj	!	!	!LO:DY:a:rj	!	!	!LO:DY:a:rj
.	4ryy	.	.	.	.	4A/	o	pp	4f/	u-	pp	4ff\	u-	pp
!!LO:LB:g=original
=27	=27	=27	=27	=27	=27	=27	=27	=27	=27	=27	=27	=27	=27	=27
1ryy	1ryy	.	1F]	.	.	4B-\	pa-	.	2g/	-li-	.	(>4ee\	-li-	.
.	.	.	.	.	.	4d\	.	.	.	.	.	4dd\)	.	.
.	.	.	.	.	.	4g\	.	.	2b-\	-tuj	.	8g/	-tuj	.
.	.	.	.	.	.	.	.	.	.	.	.	8r	.	.
.	.	.	.	.	.	8f\L	.	.	.	.	.	4ff\	się	.
.	.	.	.	.	.	8e\J	.	.	.	.	.	.	.	.
=28	=28	=28	=28	=28	=28	=28	=28	=28	=28	=28	=28	=28	=28	=28
1ryy	1ryy	.	2B-\	-nie!	.	4g\	.	.	2.g/	się	.	(>4ee\	oj-	.
.	.	.	.	.	.	4f\	.	.	.	.	.	4dd\)	.	.
.	.	.	2BB-/	wy-	.	4d\	-nie!	.	.	.	.	4b-\	-cze!	.
.	.	.	.	.	.	4B-\	wy-	.	4g/	wy-	.	4g/	wy-	.
=29	=29	=29	=29	=29	=29	=29	=29	=29	=29	=29	=29	=29	=29	=29
1ryy	1ryy	.	2C/	-słu-	.	2A/	-słu-	.	(<4g/	-słu-	.	2cc\	-słu-	.
.	.	.	.	.	.	.	.	.	4f/)	.	.	.	.	.
.	.	.	4C/	-chaj	.	4F/	-chaj	.	4c/	-chaj	.	4a/	-chaj	.
.	.	.	4C/	nas	.	4F/	nas	.	4A/	nas	.	4f/	nas	.
=30	=30	=30	=30	=30	=30	=30	=30	=30	=30	=30	=30	=30	=30	=30
1ryy	1ryy	.	1C	pa-	.	(<2D/	pa-	.	1B-	pa-	.	(<4f/	pa-	.
.	.	.	.	.	.	.	.	.	.	.	.	2a/	.	.
.	.	.	.	.	.	2E/)	.	.	.	.	.	.	.	.
.	.	.	.	.	.	.	.	.	.	.	.	4g/)	.	.
=31	=31	=31	=31	=31	=31	=31	=31	=31	=31	=31	=31	=31	=31	=31
1ryy	8ryy	.	4F 4FF/	-nie!	.	4F/	-nie!	.	4A/	-nie!	.	4f/	-nie!	.
.	(>8aa\L	.	.	.	.	.	.	.	.	.	.	.	.	.
.	8gg\	.	4r	.	.	4r	.	.	4r	.	.	4r	.	.
.	8ff\J	.	.	.	.	.	.	.	.	.	.	.	.	.
.	8ee\L	.	2r	.	.	2r	.	.	2r	.	.	2r	.	.
.	8ff\	.	.	.	.	.	.	.	.	.	.	.	.	.
.	8a\	.	.	.	.	.	.	.	.	.	.	.	.	.
.	8dd\J	.	.	.	.	.	.	.	.	.	.	.	.	.
=32	=32	=32	=32	=32	=32	=32	=32	=32	=32	=32	=32	=32	=32	=32
1ryy	8cc\L	.	1r	.	.	1r	.	.	1r	.	.	1r	.	.
.	8a\	.	.	.	.	.	.	.	.	.	.	.	.	.
.	8f\	.	.	.	.	.	.	.	.	.	.	.	.	.
.	8d\J	.	.	.	.	.	.	.	.	.	.	.	.	.
.	8c/L	.	.	.	.	.	.	.	.	.	.	.	.	.
.	8e/	.	.	.	.	.	.	.	.	.	.	.	.	.
.	8g/	.	.	.	.	.	.	.	.	.	.	.	.	.
.	8b-/J	.	.	.	.	.	.	.	.	.	.	.	.	.
=33	=33	=33	=33	=33	=33	=33	=33	=33	=33	=33	=33	=33	=33	=33
1ryy	8a/)	.	1r	.	.	1r	.	.	1r	.	.	1r	.	.
!	!LO:TX:a:t=P:problem=brak zakończenia łuku	!	!	!	!	!	!	!	!	!	!	!	!	!
.	(>8a\L	.	.	.	.	.	.	.	.	.	.	.	.	.
.	8g\	.	.	.	.	.	.	.	.	.	.	.	.	.
.	8f\J	.	.	.	.	.	.	.	.	.	.	.	.	.
!	!LO:TX:a:t=P:problem=mixedbeam	!	!	!	!	!	!	!	!	!	!	!	!	!
.	8e\L	.	.	.	.	.	.	.	.	.	.	.	.	.
.	8f\	.	.	.	.	.	.	.	.	.	.	.	.	.
.	8A</	.	.	.	.	.	.	.	.	.	.	.	.	.
.	8d</J	.	.	.	.	.	.	.	.	.	.	.	.	.
=34	=34	=34	=34	=34	=34	=34	=34	=34	=34	=34	=34	=34	=34	=34
1ryy	8c</L	.	1r	.	.	1r	.	.	1r	.	.	1r	.	.
.	8A</	.	.	.	.	.	.	.	.	.	.	.	.	.
.	8F</	.	.	.	.	.	.	.	.	.	.	.	.	.
.	8D</J	.	.	.	.	.	.	.	.	.	.	.	.	.
.	8C</L	.	.	.	.	.	.	.	.	.	.	.	.	.
.	8E</	.	.	.	.	.	.	.	.	.	.	.	.	.
.	8G</	.	.	.	.	.	.	.	.	.	.	.	.	.
.	8c</J	.	.	.	.	.	.	.	.	.	.	.	.	.
!!LO:PB:g=original
=35	=35	=35	=35	=35	=35	=35	=35	=35	=35	=35	=35	=35	=35	=35
4FF\	4F</)	.	1r	.	.	1r	.	.	4r	.	.	1r	.	.
!	!	!	!	!	!	!	!	!	!	!	!LO:DY:a:rj	!	!	!
4r	4r	.	.	.	.	.	.	.	4f^</	Z nie-	f	.	.	.
2r	2r	.	.	.	.	.	.	.	4f^</	-bio-	.	.	.	.
.	.	.	.	.	.	.	.	.	4f^</	-sów	.	.	.	.
=36	=36	=36	=36	=36	=36	=36	=36	=36	=36	=36	=36	=36	=36	=36
*^	*	*	*	*	*	*	*	*	*	*	*	*	*	*
!	!	!	!	!	!	!LO:DY:a:rj	!	!	!LO:DY:a:rj	!	!	!	!	!	!LO:DY:a:rj
2d 2B-\	1rGG	2f/	.	2B-^>\	O	f	2d^>\	O	f	(<2f^</	tro-	.	2f^</	O	f
4.d 4.B-\	.	4.g 4.e/	.	4.B-\	Je-	.	4.d\	Je-	.	2e/)	.	.	4.g/	Je-	.
8d 8B-\	.	8g 8e/	.	8B-\	-zu	.	8d\	-zu	.	.	.	.	8g/	-zu	.
=37	=37	=37	=37	=37	=37	=37	=37	=37	=37	=37	=37	=37	=37	=37	=37
*	*	*^	*	*	*	*	*	*	*	*	*	*	*	*	*
2c 2F/	1rGG	2a/	2f\	.	2F\	nasz!	.	2c\	nasz!	.	4f/	-nu	.	2a/	nasz!	.
.	.	.	.	.	.	.	.	.	.	.	4a^</	Je-	.	.	.	.
2r	.	2r	2ryy	.	2r	.	.	2r	.	.	4a^</	-zu	.	2r	.	.
.	.	.	.	.	.	.	.	.	.	.	4a^</	zwy-	.	.	.	.
=38	=38	=38	=38	=38	=38	=38	=38	=38	=38	=38	=38	=38	=38	=38	=38	=38
2c#X 2E/	1rGG	2a/	1g	.	2E^>\	O	.	2c#X^>\	O	.	1g^<	-cię-	.	2a^</	O	.
4.d 4.E/	.	4.b- 4.g/	.	.	4.E\	Je-	.	4.d\	Je-	.	.	.	.	4.b-/	Je-	.
8c# 8E/	.	8a 8g/	.	.	8E\	-zu	.	8c#\	-zu	.	.	.	.	8a/	-zu	.
*	*	*v	*v	*	*	*	*	*	*	*	*	*	*	*	*	*
=39	=39	=39	=39	=39	=39	=39	=39	=39	=39	=39	=39	=39	=39	=39	=39
*ped	*	*	*	*	*	*	*	*	*	*	*	*	*	*	*
4d/	[<1D [<1DD	4a 4f/	.	4D\	Nasz!	.	4d\	nasz!	.	4f/	-zki	.	4a\	nasz!	.
4cn^</	.	4dd 4f 4d^</	.	4r	.	.	4c^>\	spuść	.	4f^</	spuść	.	4dd^>\	spuść	.
4B-^</	.	4dd 4f 4d^</	.	2r	.	.	4B-^</	kro-	.	4f^</	kro-	.	4dd^>\	kro-	.
4A^</	.	4dd 4f^</	.	.	.	.	4A^</	-plę	.	4a^</	-ple	.	4dd^>\	-plę	.
=40	=40	=40	=40	=40	=40	=40	=40	=40	=40	=40	=40	=40	=40	=40	=40
2G#X/	1D_< 1DD_<	2ff 2bn 2f^</	.	1r	.	.	2G#X^</	krwi	.	2dd^>\	krwi	.	2ff^>\	krwi	.
4.A/	.	4.ee 4.cc#X 4.e/	.	.	.	.	4.A/	Twej	.	4.cc#X\	Twej	.	4.ee\	Twej	.
8A/	.	8ee 8cc# 8a/	.	.	.	.	8A/	na	.	8cc#\	na	.	8ee\	na	.
=41	=41	=41	=41	=41	=41	=41	=41	=41	=41	=41	=41	=41	=41	=41	=41
4B-/	1D] 1DD_<	4gg 4dd 4g/	.	4B-^>\	kro-	.	4d^>\	zie-	.	4dd\	zie-	.	[>1gg	zie-	.
4A^</	.	4gg 4dd 4cc^</	.	4A^>\	-plę	.	4d\	-mię,	.	4ccn\	-mię	.	.	.	.
4G^</	.	4gg 4dd 4b-^</	.	4G^>\	krwi	.	4d\	na	.	4b-\	na	.	.	.	.
4F^</	.	4gg 4dd 4a^</	.	4F^>\	na	.	4d\	tę	.	4a\	tę	.	.	.	.
=42	=42	=42	=42	=42	=42	=42	=42	=42	=42	=42	=42	=42	=42	=42	=42
2c#X 2E^</	1DD]	2gg^> 2a\	.	2E^>\	zie-	.	2c#X\	zie-	.	2a/	zie-	.	2gg\]	.	.
4.d 4.F/	.	4.ff 4.a/	.	4.F\	-mię	.	4.d\	-mię	.	4.a/	-mię	.	4.ff\	-mię	.
8d 8F/	.	8ff 8a/	.	8F\	spra-	.	8d\	spra-	.	8a/	spra-	.	8ff\	spra-	.
!!LO:LB:g=original
=43	=43	=43	=43	=43	=43	=43	=43	=43	=43	=43	=43	=43	=43	=43	=43
*	*	*^	*	*	*	*	*	*	*	*	*	*	*	*	*
4e 4G/	2.DD\	1bb-	(>4ee\	.	(>4G\	-gnio-	.	(>4e\	-gnio-	.	(<4g/	-gnio-	.	(>4ee\	-gnio-	.
4d 4F^</	.	.	4aa\	.	4F\)	.	.	4d\)	.	.	4a/)	.	.	4aa\)	.	.
4c#X 4E^</	.	.	4gg\	.	4E\	-ną	.	4c#X\	-ną	.	2b-\	-ną	.	4gg\	-ną	.
4d^</	4D\	.	4ff\)	.	8D\L	a	.	4d\	a	.	.	.	.	4ff\	a	.
.	.	.	.	.	8d\J	.	.	.	.	.	.	.	.	.	.	.
=44	=44	=44	=44	=44	=44	=44	=44	=44	=44	=44	=44	=44	=44	=44	=44	=44
!	!	!	!	!	!	!	!LO:DY:a:rj	!	!	!LO:DY:a:rj	!	!	!LO:DY:a:rj	!	!	!LO:DY:a:rj
!	!	!	!	!LO:DY:b:rj	!	!	!	!	!	!	!	!	!	!	!	!
2g [>2e 2c#X/	1C#X^<	(<2bb-/	2ee 2b-\	ff	2.c#X\	od-	ff	2e\	od-	ff	(<2b-/	od-	ff	2gg\	od-	ff
2e/]	.	4aa/)	2a\	.	.	.	.	2e\	-wróć	.	4a/)	.	.	2a/	-wróć	.
.	.	4gg/	.	.	4c#\	-wróć	.	.	.	.	4g/	-wróć	.	.	.	.
=45	=45	=45	=45	=45	=45	=45	=45	=45	=45	=45	=45	=45	=45	=45	=45	=45
(>2e-X/	1Cn	(>2gg/	1a	.	2cn\	klę-	.	2e-X\	klę-	.	2g/	klę-	.	2a/	klę-	.
4d/)	.	2ff#X/)	.	.	2C/	-ski!	.	4d\	-ski	.	4f#X/	-ski	.	4dd\	-ski,	.
4A/	.	.	.	.	.	.	.	4A/	nie-	.	4a/	o	.	4ff#X\	nie	.
=46	=46	=46	=46	=46	=46	=46	=46	=46	=46	=46	=46	=46	=46	=46	=46	=46
4B-/	1BB-	(>2gg/	2b-\	.	2BB-/	przy-	.	(>4B-\	-wdzię-	.	(<2b-/	przy-	.	(>2gg\	wdzię-	.
4c/	.	.	.	.	.	.	.	4c\	.	.	.	.	.	.	.	.
4d/	.	4ff/	4a-X\	.	4B-\	-tul	.	4d\)	.	.	4a-X/)	-tul	.	4ffn\)	.	.
4e-X/	.	4ee-X/)	4g\	.	4B-\	nas	.	4e-X\	-czne	.	4g/	nas	.	4ee-X\	-czne	.
=47	=47	=47	=47	=47	=47	=47	=47	=47	=47	=47	=47	=47	=47	=47	=47	=47
!	!	!	!LO:N:vis=2	!	!	!	!	!	!	!	!	!	!	!	!	!
1B-	1BB-	(>2ee-X/	(<1a-X	.	2B-\	na	.	2fn\	dzie-	.	2.a-X/	na	.	2ee-X\	dzie-	.
.	.	2dd/)	.	.	2BB-/	swe	.	2B-\	-ci	.	.	.	.	4dd\	-ci	.
.	.	.	.	.	.	.	.	.	.	.	4a-/	swe	.	4dd\	ach	.
=48	=48	=48	=48	=48	=48	=48	=48	=48	=48	=48	=48	=48	=48	=48	=48	=48
*	*^	*	*	*	*	*	*	*	*	*	*	*	*	*	*	*
!	!	!	!	!	!	!	!	!	!	!	!	!	!	!	!	!	!LO:HP:a
[>1A	4AA\	[<1AA	(>2ff/	2an\)	.	[<1AA	ło-	.	4An\	przy-	.	[>1an	ło-	.	(>2ff\	przy-	>
!	!	!	!	!	!	!	!	!LO:HP:a	!	!	!LO:HP:a	!	!	!LO:HP:a	!	!	!
.	4r	.	.	.	.	.	.	>	4Bn\	-tul	>	.	.	>	.	.	.
.	2r	.	4een/	2r	.	.	.	.	4c#X\	na	.	.	.	.	4een\)	.	.
.	.	.	4dd/	.	.	.	.	.	4d\	swe	.	.	.	.	4dd\	-tul	.
*	*	*	*v	*v	*	*	*	*	*	*	*	*	*	*	*	*	*
=49	=49	=49	=49	=49	=49	=49	=49	=49	=49	=49	=49	=49	=49	=49	=49	=49
4A/]	1rGG	1AA]	[>1a)	.	1AA]	.	]]	(>4e\	ło-	.	(>2.a/]	.	.	4cc#X\	na	.
4D/	.	.	.	.	.	.	.	4f\	.	.	.	.	.	4dd\	Twe	.
4En/	.	.	.	.	.	.	.	4e\	.	.	.	.	]	(>4ccn\	ło-	]
8F/L	.	.	.	.	.	.	.	4d\	.	]	4f/)	.	.	4b-\)	.	.
8G/J	.	.	.	.	.	.	.	.	.	.	.	.	.	.	.	.
*	*v	*v	*	*	*	*	*	*	*	*	*	*	*	*	*	*
=50	=50	=50	=50	=50	=50	=50	=50	=50	=50	=50	=50	=50	=50	=50	=50
*ped	*	*	*	*	*	*	*	*	*	*	*	*	*	*	*
!LO:TX:a:t=P:problem=niejednoznaczne zakończenie łuku	!	!	!	!	!	!	!	!	!	!	!	!	!	!	!
(<4A/	[<1AA	8a/]	.	4AA/	-no	.	4A/)	-no!	.	4a/	-no!	.	4a/	-no!	.
!	!	!LO:TX:a:t=P:problem=brak zakończenia łuku	!LO:DY:b:t=p.:rj	!	!	!	!	!	!	!	!	!	!	!	!
.	.	(>8a/L	p	.	.	.	.	.	.	.	.	.	.	.	.
4G#X/	.	8bn/	.	4r	.	.	4r	.	.	4r	.	.	4r	.	.
.	.	8cc#X/J	.	.	.	.	.	.	.	.	.	.	.	.	.
4Gn/	.	8dd\L	.	2r	.	.	2r	.	.	2r	.	.	2r	.	.
.	.	8cc#\	.	.	.	.	.	.	.	.	.	.	.	.	.
4E/)	.	8aa\	.	.	.	.	.	.	.	.	.	.	.	.	.
.	.	8ee\J	.	.	.	.	.	.	.	.	.	.	.	.	.
*v	*v	*	*	*	*	*	*	*	*	*	*	*	*	*	*
!!LO:PB:g=original
=51	=51	=51	=51	=51	=51	=51	=51	=51	=51	=51	=51	=51	=51	=51
1AA_<	8gg/L)	.	1r	.	.	1r	.	.	1r	.	.	1r	.	.
.	8ff/	.	.	.	.	.	.	.	.	.	.	.	.	.
.	8a/	.	.	.	.	.	.	.	.	.	.	.	.	.
.	8f/J	.	.	.	.	.	.	.	.	.	.	.	.	.
.	8e/L	.	.	.	.	.	.	.	.	.	.	.	.	.
.	8g#X/	.	.	.	.	.	.	.	.	.	.	.	.	.
.	8bn/	.	.	.	.	.	.	.	.	.	.	.	.	.
.	8dd/J	.	.	.	.	.	.	.	.	.	.	.	.	.
=52	=52	=52	=52	=52	=52	=52	=52	=52	=52	=52	=52	=52	=52	=52
*^	*	*	*	*	*	*	*	*	*	*	*	*	*	*
8rG	1AA^<_<	(>4cc#X\	.	1r	.	.	1r	.	.	1r	.	.	1r	.	.
8A/L	.	.	.	.	.	.	.	.	.	.	.	.	.	.	.
*	*	*2\left	*	*	*	*	*	*	*	*	*	*	*	*	*
8Bn/	.	2ee\)	.	.	.	.	.	.	.	.	.	.	.	.	.
8c#X/J	.	.	.	.	.	.	.	.	.	.	.	.	.	.	.
!LO:TX:a:t=P:problem=mixedbeam	!	!	!	!	!	!	!	!	!	!	!	!	!	!	!
8d/L	.	.	.	.	.	.	.	.	.	.	.	.	.	.	.
8c#/	.	.	.	.	.	.	.	.	.	.	.	.	.	.	.
8a>\	.	[>4a/	.	.	.	.	.	.	.	.	.	.	.	.	.
8e>\J	.	.	.	.	.	.	.	.	.	.	.	.	.	.	.
=53	=53	=53	=53	=53	=53	=53	=53	=53	=53	=53	=53	=53	=53	=53	=53
!LO:TX:a:t=P:problem=mixedbeam	!	!	!	!	!	!	!	!	!	!	!	!	!	!	!
8f>\L	1AA_<	4a/]	.	1r	.	.	1r	.	.	1r	.	.	1r	.	.
8e>\	.	.	.	.	.	.	.	.	.	.	.	.	.	.	.
*	*	*2\right	*	*	*	*	*	*	*	*	*	*	*	*	*
8A/	.	2dd\	.	.	.	.	.	.	.	.	.	.	.	.	.
8F/J	.	.	.	.	.	.	.	.	.	.	.	.	.	.	.
8E/L	.	.	.	.	.	.	.	.	.	.	.	.	.	.	.
8Gn/	.	.	.	.	.	.	.	.	.	.	.	.	.	.	.
8Bn/	.	4g#X/	.	.	.	.	.	.	.	.	.	.	.	.	.
8d/J	.	.	.	.	.	.	.	.	.	.	.	.	.	.	.
=54	=54	=54	=54	=54	=54	=54	=54	=54	=54	=54	=54	=54	=54	=54	=54
!	!	!	!	!	!	!	!	!	!	!	!	!	!	!	!LO:DY:a:rj
2.c#X/	1AA^<]	8r	.	1r	.	.	1r	.	.	1r	.	.	2a/	Ba-	p
.	.	8a\L	.	.	.	.	.	.	.	.	.	.	.	.	.
.	.	8g#X\	.	.	.	.	.	.	.	.	.	.	.	.	.
.	.	8a\J	.	.	.	.	.	.	.	.	.	.	.	.	.
.	.	8gn\L	.	.	.	.	.	.	.	.	.	.	4a/	-ran-	.
.	.	8f\	.	.	.	.	.	.	.	.	.	.	.	.	.
4r	.	8e\	.	.	.	.	.	.	.	.	.	.	4a/	-ku	.
.	.	8d\J	.	.	.	.	.	.	.	.	.	.	.	.	.
=55	=55	=55	=55	=55	=55	=55	=55	=55	=55	=55	=55	=55	=55	=55	=55
!	!	!	!	!	!	!	!	!	!LO:DY:a:rj	!	!	!	!	!	!
[>1d	1BB-X	8r	.	1ryy	.	.	2A/	Ba-	p	1r	.	.	[>1a	Bo-	.
.	.	8aa/L	.	.	.	.	.	.	.	.	.	.	.	.	.
.	.	8gg#X/	.	.	.	.	.	.	.	.	.	.	.	.	.
.	.	8aa/J	.	.	.	.	.	.	.	.	.	.	.	.	.
.	.	8ggn/L	.	.	.	.	4A/	-ran-	.	.	.	.	.	.	.
.	.	8ff/	.	.	.	.	.	.	.	.	.	.	.	.	.
.	.	8ee/	.	.	.	.	4A/	-ku	.	.	.	.	.	.	.
.	.	8dd/J	.	.	.	.	.	.	.	.	.	.	.	.	.
=56	=56	=56	=56	=56	=56	=56	=56	=56	=56	=56	=56	=56	=56	=56	=56
*	*	*^	*	*	*	*	*	*	*	*	*	*	*	*	*
!	!	!	!	!	!	!	!	!LO:TX:a:t=P:problem=brak rozpoczęcia ligatury	!	!	!	!	!LO:DY:a:rj	!LO:TX:a:t=P:problem=brak rozpoczęcia ligatury	!	!
2.d/]	1BBn	1dd	8r	.	1ryy	.	.	[<1A	Bo-	.	2a/	Ba-	p	1a_<	.	.
.	.	.	8a\L	.	.	.	.	.	.	.	.	.	.	.	.	.
.	.	.	8g#X\	.	.	.	.	.	.	.	.	.	.	.	.	.
.	.	.	8a\J	.	.	.	.	.	.	.	.	.	.	.	.	.
.	.	.	8gn\L	.	.	.	.	.	.	.	4a/	-ran-	.	.	.	.
.	.	.	8f\	.	.	.	.	.	.	.	.	.	.	.	.	.
!	!	!	!	!	!	!	!	!	!	!	!LO:TX:a:t=P:problem=brak rozpoczęcia łuku/ligatury	!	!	!	!	!
4ryy	.	.	8e\	.	.	.	.	.	.	.	(<4a/	-ku	.	.	.	.
.	.	.	8d\J	.	.	.	.	.	.	.	.	.	.	.	.	.
*v	*v	*	*	*	*	*	*	*	*	*	*	*	*	*	*	*
!!LO:LB:g=original
=57	=57	=57	=57	=57	=57	=57	=57	=57	=57	=57	=57	=57	=57	=57	=57
2C\	8ree	2.e\	.	2A\	Ba-	.	2A/]	.	.	2a/)	[Bo]-	.	2a/]	.	.
.	8bb-/L	.	.	.	.	.	.	.	.	.	.	.	.	.	.
.	8aa/	.	.	.	.	.	.	.	.	.	.	.	.	.	.
.	8gg#X/J	.	.	.	.	.	.	.	.	.	.	.	.	.	.
2C#X\	8aa/L	.	.	4A\	-ran-	.	2A/	-ży!	.	2a/	-ży!	.	2a/	-ży!	.
.	8ggn/	.	.	.	.	.	.	.	.	.	.	.	.	.	.
.	8ff/	4a\	.	4A\	-ku!	.	.	.	.	.	.	.	.	.	.
.	8ee/J	.	.	.	.	.	.	.	.	.	.	.	.	.	.
*	*v	*v	*	*	*	*	*	*	*	*	*	*	*	*	*
=58	=58	=58	=58	=58	=58	=58	=58	=58	=58	=58	=58	=58	=58	=58
*^	*	*	*	*	*	*	*	*	*	*	*	*	*	*
!LO:N:vis=2	!	!	!	!	!	!	!	!	!	!	!	!	!	!	!
2.A/	[>2.D 2.DD\	8ff/L	.	2D\	Z krzy-	.	2A/	Z krzy-	.	2d/	Z krzy-	.	2f/	Z krzy-	.
.	.	8ee/	.	.	.	.	.	.	.	.	.	.	.	.	.
.	.	8dd/	.	.	.	.	.	.	.	.	.	.	.	.	.
.	.	8cc#X/J	.	.	.	.	.	.	.	.	.	.	.	.	.
*	*	*	*	*	*ij	*	*	*ij	*	*	*ij	*	*	*	*
.	.	8dd/L	.	4D\	-ża	.	4A/	-ża	.	4d/	-ża	.	4f/	-ża	.
.	.	8a/	.	.	.	.	.	.	.	.	.	.	.	.	.
8B-/L	4D\]	8dd/	.	4D\	bo-	.	4B-/	bo-	.	4d/	bo-	.	4f/	bo-	.
8d/J	.	[<8ff/J	.	.	.	.	.	.	.	.	.	.	.	.	.
*v	*v	*	*	*	*	*	*	*	*	*	*	*	*	*	*
=59	=59	=59	=59	=59	=59	=59	=59	=59	=59	=59	=59	=59	=59	=59
(>1c#X 1B- 1G	8ff/L]	.	2G\	-le-	.	2B-\	-le-	.	2d/	-le-	.	2f/	-le-	.
.	8ee/	.	.	.	.	.	.	.	.	.	.	.	.	.
.	8gg/	.	.	.	.	.	.	.	.	.	.	.	.	.
.	8ff/J	.	.	.	.	.	.	.	.	.	.	.	.	.
.	8ee/L	.	2G\	-ści	.	2A\	-ści	.	2c#X/	-ści	.	2e/	-ści	.
.	8dd/	.	.	.	.	.	.	.	.	.	.	.	.	.
.	8cc#X/	.	.	.	.	.	.	.	.	.	.	.	.	.
.	8ee/J	.	.	.	.	.	.	.	.	.	.	.	.	.
=60	=60	=60	=60	=60	=60	=60	=60	=60	=60	=60	=60	=60	=60	=60
*^	*	*	*	*	*	*	*	*	*	*	*	*	*	*
[<1d> 1F)	2A/	8dd/L	.	4.F\	o	.	4.A/	o	.	4.d/	o	.	4.a/	o	.
.	.	8aa/	.	.	.	.	.	.	.	.	.	.	.	.	.
.	.	8bb-/	.	.	.	.	.	.	.	.	.	.	.	.	.
.	.	8aa/J	.	8F\	ba-	.	8A/	ba-	.	8d/	ba-	.	8a/	ba-	.
.	4B-/	8gg#X/L	.	4F\	-ran-	.	4B-/	-ran-	.	4d/	-ran-	.	4.dd\	-ran-	.
.	.	8aa/	.	.	.	.	.	.	.	.	.	.	.	.	.
.	4A/	8ff/	.	4F\	-ku	.	4A/	-ku	.	4d/	-ku	.	.	.	.
.	.	8dd/J	.	.	.	.	.	.	.	.	.	.	8a/	-ku	.
=61	=61	=61	=61	=61	=61	=61	=61	=61	=61	=61	=61	=61	=61	=61	=61
2.E\	1d>] 1B-	8dd/L	.	2.E\	Bo-	.	2B-\	Bo-	.	2d/	Bo-	.	2a/	Bo-	.
.	.	8ee/	.	.	.	.	.	.	.	.	.	.	.	.	.
.	.	8ff/	.	.	.	.	.	.	.	.	.	.	.	.	.
.	.	8gg/J	.	.	.	.	.	.	.	.	.	.	.	.	.
.	.	8gg/L	.	.	.	.	2B-\	-ży!	.	2d/	-ży!	.	2g/	-ży!	.
.	.	8ff/	.	.	.	.	.	.	.	.	.	.	.	.	.
4D\	.	8gg/	.	4D\	-ży!	.	.	.	.	.	.	.	.	.	.
.	.	8dd/J	.	.	.	.	.	.	.	.	.	.	.	.	.
=62	=62	=62	=62	=62	=62	=62	=62	=62	=62	=62	=62	=62	=62	=62	=62
*	*	*^	*	*	*	*	*	*	*	*	*	*	*	*	*
2.A/	2.C#X\	8ee/L	[<1e	.	2C#X/	spoj-	.	2A/	spoj-	.	2e/	spoj-	.	2ee\	spoj-	.
.	.	8ff/	.	.	.	.	.	.	.	.	.	.	.	.	.	.
.	.	8gg/	.	.	.	.	.	.	.	.	.	.	.	.	.	.
.	.	8bb-/J	.	.	.	.	.	.	.	.	.	.	.	.	.	.
.	.	8aa/L	.	.	4C#/	-rzyj	.	4A/	-rzyj	.	4e/	-rzyj	.	4g/	-rzyj	.
.	.	8gg/	.	.	.	.	.	.	.	.	.	.	.	.	.	.
4B-/	4D\	8ff/	.	.	4D/	na	.	4B-/	na	.	4e/	na	.	4g/	na	.
.	.	8ee/J	.	.	.	.	.	.	.	.	.	.	.	.	.	.
=63	=63	=63	=63	=63	=63	=63	=63	=63	=63	=63	=63	=63	=63	=63	=63	=63
!	!	!	!	!	!	!	!	!LO:TX:a:t=P:problem=niejednoznaczny zapis wysokości nut	!	!	!	!	!	!	!	!
1A	2C#X\	8ee/L	2e\]	.	2C#X/	zie-	.	2B-\	zie-	.	2e/	zie-	.	2g/	zie-	.
.	.	8ff/	.	.	.	.	.	.	.	.	.	.	.	.	.	.
.	.	8gg/	.	.	.	.	.	.	.	.	.	.	.	.	.	.
.	.	8ee/J	.	.	.	.	.	.	.	.	.	.	.	.	.	.
.	2Cn\	8ff#X/L	2e-X\	.	2Cn/	-mię	.	2A\	-mię	.	2e-X/	-mię	.	2f#X/	-mię	.
.	.	8gg/	.	.	.	.	.	.	.	.	.	.	.	.	.	.
.	.	8aa/	.	.	.	.	.	.	.	.	.	.	.	.	.	.
.	.	8gg/J	.	.	.	.	.	.	.	.	.	.	.	.	.	.
!!LO:PB:g=original
=64	=64	=64	=64	=64	=64	=64	=64	=64	=64	=64	=64	=64	=64	=64	=64	=64
!	!	!	!	!	!	!	!	!	!	!	!	!	!	!LO:S:color=red	!	!
4G/	4BB-\	(>8gg\L	1d	.	4C/	u-	.	4G/	u-	.	2d/	u-	.	(<4g/	u-	.
.	.	8ddd\J)	.	.	.	.	.	.	.	.	.	.	.	.	.	.
2F#X/	2AA\	(>8ddd\L	.	.	2AA/	-słysz	.	2F#X/	-słysz	.	.	.	.	4a/)	.	.
.	.	8aa\J)	.	.	.	.	.	.	.	.	.	.	.	.	.	.
.	.	(>8ccc\L	.	.	.	.	.	.	.	.	4d/	-słysz	.	4.cc\	-słysz	.
.	.	8bb-\	.	.	.	.	.	.	.	.	.	.	.	.	.	.
8G/L	4GG\	8gg\J)	.	.	4AA/	wo-	.	8G/L	wo-	.	4d/	wo-	.	.	.	.
8Fn/J	.	(>[>8gg\	.	.	.	.	.	8Fn/J	.	.	.	.	.	8b-\	wo-	.
=65	=65	=65	=65	=65	=65	=65	=65	=65	=65	=65	=65	=65	=65	=65	=65	=65
4E/	[<2AA\	8gg'>\L]	2d\	.	2AA/	-ła-	.	2E/	-ła-	.	2A/	-ła-	.	2a/	-ła-	.
*	*	*	*	*	*	*	*	*	*Xij	*	*	*Xij	*	*	*	*
.	.	8aa\	.	.	.	.	.	.	.	.	.	.	.	.	.	.
4F/	.	8ff\	.	.	.	.	.	.	.	.	.	.	.	.	.	.
.	.	8dd\J	.	.	.	.	.	.	.	.	.	.	.	.	.	.
4.A/	8AA\]	8ee\L	2c#X\	.	4AA/	-nie	.	4A/	-nie	.	4A/	-nie	.	4a/	-nie	.
*	*	*	*	*	*	*Xij	*	*	*	*	*	*	*	*	*	*
.	8r	8cc#X\	.	.	.	.	.	.	.	.	.	.	.	.	.	.
.	4r	8a\)	.	.	4r	.	.	4r	.	.	4r	.	.	4r	.	.
!	!	!	!	!LO:DY:b	!	!	!	!	!	!	!	!	!	!	!	!
8G/	.	8aa\J	.	f	.	.	.	.	.	.	.	.	.	.	.	.
=66	=66	=66	=66	=66	=66	=66	=66	=66	=66	=66	=66	=66	=66	=66	=66	=66
*	*	*	*^	*	*	*	*	*	*	*	*	*	*	*	*	*
!LO:TX:a:t=P:problem=mixedbeam	!	!	!	!	!	!	!	!LO:DY:a:rj	!	!	!LO:DY:a:rj	!	!	!LO:DY:a:rj	!	!	!LO:DY:a:rj
!LO:N:vis=2	!	!	!	!	!	!	!	!	!	!	!	!	!	!	!	!	!
8F/L	2F 2D\	[1aa	2ff\	1a	.	(>2D\	Niech	f	1r	.	f	[>1a	Ba-	f	2ff^>\	niech	f
8A/	.	.	.	.	.	.	.	.	.	.	.	.	.	.	.	.	.
8d>\	.	.	.	.	.	.	.	.	.	.	.	.	.	.	.	.	.
8f>\J	.	.	.	.	.	.	.	.	.	.	.	.	.	.	.	.	.
!LO:TX:a:t=P:problem=mixedbeam	!	!	!	!	!	!	!	!	!	!	!	!	!	!	!	!	!
!LO:N:vis=2	!	!	!	!	!	!	!	!	!	!	!	!	!	!	!	!	!
8G/L	2G 2E\	.	2cc#X\	.	.	2E\)	.	.	.	.	.	.	.	.	4cc#X\	się	.
8A/	.	.	.	.	.	.	.	.	.	.	.	.	.	.	.	.	.
8e>\	.	.	.	.	.	.	.	.	.	.	.	.	.	.	4cc#\	Twe	.
8a>\J	.	.	.	.	.	.	.	.	.	.	.	.	.	.	.	.	.
*	*	*v	*v	*v	*	*	*	*	*	*	*	*	*	*	*	*	*
=67	=67	=67	=67	=67	=67	=67	=67	=67	=67	=67	=67	=67	=67	=67	=67
!LO:TX:a:t=P:problem=mixedbeam	!	!	!	!	!	!	!	!	!LO:DY:a:rj	!	!	!	!	!	!
8A/L	2F\	2aa] 2dd\	.	2F\	się	.	2f^>\	Niech	f	1a]	.	.	2dd\	ser-	.
8d>\	.	.	.	.	.	.	.	.	.	.	.	.	.	.	.
8f>\	.	.	.	.	.	.	.	.	.	.	.	.	.	.	.
8a>\J	.	.	.	.	.	.	.	.	.	.	.	.	.	.	.
!LO:TX:a:t=P:problem=mixedbeam	!	!	!	!	!	!	!	!	!	!	!	!	!	!	!
8g>\L	2E\	2a/	.	2E\	Twe	.	4c#X\	się	.	.	.	.	4a\	-ce	.
8e>\	.	.	.	.	.	.	.	.	.	.	.	.	.	.	.
8c#X/	.	.	.	.	.	.	4c#\	Twe	.	.	.	.	4a\	dla	.
8B-/J	.	.	.	.	.	.	.	.	.	.	.	.	.	.	.
=68	=68	=68	=68	=68	=68	=68	=68	=68	=68	=68	=68	=68	=68	=68	=68
2F/	2D\	8B-/L	.	(>2D\	ser-	.	2d\	ser-	.	2.b-/	-ran-	.	2ff^>\	dzie-	.
.	.	8d/	.	.	.	.	.	.	.	.	.	.	.	.	.
.	.	8f/	.	.	.	.	.	.	.	.	.	.	.	.	.
.	.	8b-/J	.	.	.	.	.	.	.	.	.	.	.	.	.
2G/	2E\	8b-/L	.	2E\)	.	.	4G/	-ce	.	.	.	.	4cc#X\	-ci	.
.	.	8a/	.	.	.	.	.	.	.	.	.	.	.	.	.
.	.	8e/	.	.	.	.	4G/	o-	.	8a/L	-ku	.	4cc#\	o-	.
.	.	8c/J	.	.	.	.	.	.	.	8g/J	.	.	.	.	.
=69	=69	=69	=69	=69	=69	=69	=69	=69	=69	=69	=69	=69	=69	=69	=69
*	*	*^	*	*	*	*	*	*	*	*	*	*	*	*	*
1A	2F\	8d/L	2ryy	.	2F\	-ce	.	2d^>\	-two-	.	2a/	Bo-	.	2dd\	-two-	.
.	.	8a/	.	.	.	.	.	.	.	.	.	.	.	.	.	.
.	.	8g#X/	.	.	.	.	.	.	.	.	.	.	.	.	.	.
.	.	8a/J	.	.	.	.	.	.	.	.	.	.	.	.	.	.
!	!	!	!	!	!	!	!	!LO:TX:a:t=P:problem=dorysowana czerwonym atramentem chorągiewka nuty	!	!	!	!	!	!	!	!
.	2F#X\	2dd/	8dd\L	.	2F#X\	dla	.	8A/@	-rzy	.	8a/@	-ży,	.	8dd\	-rzy	.
.	.	.	8cc\	.	.	.	.	8r@	.	.	8r@	.	.	8r	.	.
.	.	.	8b-\	.	.	.	.	4A/	wy-	.	4a/	u-	.	4dd\	wy-	.
.	.	.	8a\J	.	.	.	.	.	.	.	.	.	.	.	.	.
!!LO:LB:g=original
=70	=70	=70	=70	=70	=70	=70	=70	=70	=70	=70	=70	=70	=70	=70	=70	=70
8B-/L	2G\	(>4ee-X/	4g\	.	(>2G\	dzie-	.	8B-\L	-słu-	.	2b-/	-słu-	.	(>4ee-X\	-słu-	.
8c/	.	.	.	.	.	.	.	8c\J	.	.	.	.	.	.	.	.
8d/	.	4dd/	4ryy	.	.	.	.	[>4d\	-chaj	.	.	.	.	4dd\)	.	.
8c#X/J	.	.	.	.	.	.	.	.	.	.	.	.	.	.	.	.
4B-\	2ryy	4g/)	8d\L	.	4B-\	.	.	8d\L]	.	.	8d/	-chaj	.	8g/	-chaj	.
.	.	.	8d#X\	.	.	.	.	8d#X\J	.	.	8r	.	.	8r	.	.
4A\	.	(>4cc#X/	8e\	.	4A\)	.	.	4e\	wy-	.	4a/	wy-	.	4cc#X\	wy-	.
.	.	.	8g\J	.	.	.	.	.	.	.	.	.	.	.	.	.
*v	*v	*	*	*	*	*	*	*	*	*	*	*	*	*	*	*
=71	=71	=71	=71	=71	=71	=71	=71	=71	=71	=71	=71	=71	=71	=71	=71
!	!	!	!	!	!	!	!LO:S:color=red	!	!	!	!	!	!	!	!
2G\	4eenX/	8g\L	.	2G\	-ci	.	(>4c#X\	-słu-	.	2b-/	-słu-	.	(>4een\	-słu-	.
.	.	8a\	.	.	.	.	.	.	.	.	.	.	.	.	.
.	4dd/	8b-\	.	.	.	.	4d\)	.	.	.	.	.	4dd\)	.	.
.	.	8f#X\J	.	.	.	.	.	.	.	.	.	.	.	.	.
!	!	!LO:TX:a:t=P:problem=mixedbeam	!	!	!	!	!	!	!	!	!	!	!	!	!
2GG\	4b-/	8g\L	.	2GG/	o-	.	4d\	-chaj	.	4g/	-chaj,	.	4b-\	-chaj	.
.	.	8d\	.	.	.	.	.	.	.	.	.	.	.	.	.
.	4g/)	8B-</	.	.	.	.	4B-\	nas	.	4d/	wy-	.	4g/	wy-	.
.	.	8G</J	.	.	.	.	.	.	.	.	.	.	.	.	.
=72	=72	=72	=72	=72	=72	=72	=72	=72	=72	=72	=72	=72	=72	=72	=72
*^	*	*	*	*	*	*	*	*	*	*	*	*	*	*	*
!LO:TX:a:t=a	!	!	!	!	!	!	!	!LO:S:color=red	!	!	!	!	!	!	!	!
8A/L	1AA	(>4f/	2d\	.	[<1AA	-two-	.	(>1A	pa-	.	2d/	-słu-	.	4f/	-słu-	.
8F/	.	.	.	.	.	.	.	.	.	.	.	.	.	.	.	.
8E/	.	4g/	.	.	.	.	.	.	.	.	.	.	.	4g/	-chaj	.
8D/J	.	.	.	.	.	.	.	.	.	.	.	.	.	.	.	.
!	!	!	!	!	!	!	!	!	!	!	!	!	!	!LO:T:color=red	!	!
8E/L	.	[>2a/	4c#X\	.	.	.	.	.	.	.	4e/	-chaj	.	[<2a/	nas	.
8G/	.	.	.	.	.	.	.	.	.	.	.	.	.	.	.	.
!	!	!	!	!	!	!	!	!	!	!	!LO:T:color=red	!	!	!	!	!
8F#X/	.	.	4cn\	.	.	.	.	.	.	.	[<4d/	nas	.	.	.	.
8A/J	.	.	.	.	.	.	.	.	.	.	.	.	.	.	.	.
=73	=73	=73	=73	=73	=73	=73	=73	=73	=73	=73	=73	=73	=73	=73	=73	=73
8G/L	1AA	4a/]	8B-\L	.	2.AA/]	-rzy,	.	8G/L	.	.	4d/]	.	.	4a/]	.	.
8F/J	.	.	8Bn\	.	.	.	.	8F/J	.	.	.	.	.	.	.	.
!	!	!	!	!	!	!	!	!	!	!	!LO:T:color=red	!	!	!	!	!
[>4E/	.	8g/L	8c\	.	.	.	.	2E/)	.	.	[<4e/	pa-	.	8g/L	o	.
.	.	8a/J	8c#X\J	.	.	.	.	.	.	.	.	.	.	8a/J	.	.
!	!	!	!	!	!	!	!	!	!	!	!	!	!	!LO:S:color=red	!	!
8E/L]	.	4.b-/	4d\	.	.	.	.	.	.	.	8e/L]	.	.	(<4.b-/	pa-	.
8D/J	.	.	.	.	.	.	.	.	.	.	8f/J	.	.	.	.	.
4C#X/	.	.	4e\	.	4AA/	wy-	.	4A/	-nie	.	4g/	-nie!	.	.	.	.
.	.	8a/	.	.	.	.	.	.	.	.	.	.	.	8a/)	.	.
=74	=74	=74	=74	=74	=74	=74	=74	=74	=74	=74	=74	=74	=74	=74	=74	=74
!LO:N:vis=2	!	!	!	!	!	!	!	!	!	!	!	!	!	!	!	!
8D/L	2D\	[>1a)	2f\	.	(<2D/	.	.	4D/	nasz!	.	2f^</	zli-	.	2a/	-nie!	.
8F/	.	.	.	.	.	.	.	.	.	.	.	.	.	.	.	.
8E/	.	.	.	.	.	.	.	4r	.	.	.	.	.	.	.	.
8D/J	.	.	.	.	.	.	.	.	.	.	.	.	.	.	.	.
8E/L	2AA\	.	2c#X\	.	2AA/)	.	.	2r	.	.	4c#X/	-tuj	.	4r	.	.
8G/	.	.	.	.	.	.	.	.	.	.	.	.	.	.	.	.
8F/	.	.	.	.	.	.	.	.	.	.	4c#/	się	.	4a/	wy-	.
8E/J	.	.	.	.	.	.	.	.	.	.	.	.	.	.	.	.
=75	=75	=75	=75	=75	=75	=75	=75	=75	=75	=75	=75	=75	=75	=75	=75	=75
!	!	!	!	!	!	!	!	!	!	!	!	!	!	!LO:S:color=red	!	!
8D/L	2BBn\	2a/]	2d\	.	2BBn/	słu-	.	1r	.	.	2d/	oj-	.	(>2a^</	-słu-	.
8A/	.	.	.	.	.	.	.	.	.	.	.	.	.	.	.	.
8G/	.	.	.	.	.	.	.	.	.	.	.	.	.	.	.	.
8F/J	.	.	.	.	.	.	.	.	.	.	.	.	.	.	.	.
8E/L	2C#X\	4e/	2e\	.	2C#X/	-chaj	.	.	.	.	2A/	-cze	.	4d/)	.	.
8A/	.	.	.	.	.	.	.	.	.	.	.	.	.	.	.	.
8G/	.	4a/	.	.	.	.	.	.	.	.	.	.	.	4a/	-chaj	.
8E/J	.	.	.	.	.	.	.	.	.	.	.	.	.	.	.	.
*v	*v	*	*	*	*	*	*	*	*	*	*	*	*	*	*	*
!!LO:PB:g=original
=76	=76	=76	=76	=76	=76	=76	=76	=76	=76	=76	=76	=76	=76	=76	=76
!	!	!LO:TX:a:t=P:problem=mixedbeam	!	!	!	!	!	!	!	!	!	!	!	!	!
2D\	1a	8F</L	.	4D\	nas.	.	2f\	wy-	.	2r	.	.	2a/	nas!	.
.	.	8f\	.	.	.	.	.	.	.	.	.	.	.	.	.
.	.	8e\	.	4r	.	.	.	.	.	.	.	.	.	.	.
.	.	8d\J	.	.	.	.	.	.	.	.	.	.	.	.	.
2AA\	.	8c#X\L	.	2r	.	.	4c#X\	-słu-	.	4r	.	.	2r	.	.
.	.	8g\	.	.	.	.	.	.	.	.	.	.	.	.	.
.	.	8f\	.	.	.	.	4c#\	-chaj	.	4a/	a	.	.	.	.
.	.	8e\J	.	.	.	.	.	.	.	.	.	.	.	.	.
*	*v	*v	*	*	*	*	*	*	*	*	*	*	*	*	*
=77	=77	=77	=77	=77	=77	=77	=77	=77	=77	=77	=77	=77	=77	=77
2BB-\	8d/L	.	1r	.	.	4d\	nas!	.	2a/	wy-	.	1r	.	.
.	8a/	.	.	.	.	.	.	.	.	.	.	.	.	.
.	8g/	.	.	.	.	4r	.	.	.	.	.	.	.	.
.	8f/J	.	.	.	.	.	.	.	.	.	.	.	.	.
2BBn\	8g/L	.	.	.	.	2r	.	.	4d/	-słu-	.	.	.	.
.	8f/	.	.	.	.	.	.	.	.	.	.	.	.	.
.	8g/	.	.	.	.	.	.	.	4d/	-chaj	.	.	.	.
.	8d/J	.	.	.	.	.	.	.	.	.	.	.	.	.
=78	=78	=78	=78	=78	=78	=78	=78	=78	=78	=78	=78	=78	=78	=78
*	*^	*	*	*	*	*	*	*	*	*	*	*	*	*
2C\	8e/L	2ryy	.	1r	.	.	2r	.	.	1e	nas!	.	4r	.	.
.	8f/	.	.	.	.	.	.	.	.	.	.	.	.	.	.
.	8g/	.	.	.	.	.	.	.	.	.	.	.	4g/	wy-	.
.	8a/J	.	.	.	.	.	.	.	.	.	.	.	.	.	.
!	!	!LO:N:vis=2	!	!	!	!	!	!	!	!	!	!	!	!	!
2C#X\	(>2b-/	8b-\L	.	.	.	.	2G/	o	.	.	.	.	[<2b-/	-słu-	.
.	.	8g\	.	.	.	.	.	.	.	.	.	.	.	.	.
.	.	8e\	.	.	.	.	.	.	.	.	.	.	.	.	.
.	.	8g\J	.	.	.	.	.	.	.	.	.	.	.	.	.
=79	=79	=79	=79	=79	=79	=79	=79	=79	=79	=79	=79	=79	=79	=79	=79
2D\	8b-/L)	2f\	.	1r	.	.	2.F/	pa-	.	4r	.	.	8b-/L]	.	.
.	8a/	.	.	.	.	.	.	.	.	.	.	.	8a/J	.	.
.	8g#X/	.	.	.	.	.	.	.	.	4f/	wy-	.	8g#X/L	-chaj	.
.	8a/J	.	.	.	.	.	.	.	.	.	.	.	8a/J	.	.
2BB-\	4.dd/	8gn\L	.	.	.	.	.	.	.	[>2d/	-słu-	.	4.dd\	nas	.
.	.	8f\	.	.	.	.	.	.	.	.	.	.	.	.	.
.	.	8e\	.	.	.	.	8G/L	-nie!	.	.	.	.	.	.	.
.	8f/	8d\J	.	.	.	.	8A/J	.	.	.	.	.	8f/	o	.
=80	=80	=80	=80	=80	=80	=80	=80	=80	=80	=80	=80	=80	=80	=80	=80
*^	*	*	*	*	*	*	*	*	*	*	*	*	*	*	*
*	*^	*	*	*	*	*	*	*	*	*	*	*	*	*	*	*
8A/L	2ryy	1GG	[>1e	[<1d	.	1r	.	.	8A/L	zli-	.	(>1d_<	.	.	1e	pa-	.
8G/	.	.	.	.	.	.	.	.	8G/J	.	.	.	.	.	.	.	.
8F#X/	.	.	.	.	.	.	.	.	8F#X/L	-tuj	.	.	.	.	.	.	.
8G/J	.	.	.	.	.	.	.	.	8G/J	.	.	.	.	.	.	.	.
!LO:N:vis=2	!	!	!	!	!	!	!	!	!	!	!	!	!	!	!	!	!
8B-\L	2B-/	.	.	.	.	.	.	.	4B-/	się	.	.	.	.	.	.	.
8G\	.	.	.	.	.	.	.	.	.	.	.	.	.	.	.	.	.
8D\	.	.	.	.	.	.	.	.	4G/	nad	.	.	.	.	.	.	.
8BB-\J	.	.	.	.	.	.	.	.	.	.	.	.	.	.	.	.	.
*	*v	*v	*	*	*	*	*	*	*	*	*	*	*	*	*	*	*
=81	=81	=81	=81	=81	=81	=81	=81	=81	=81	=81	=81	=81	=81	=81	=81	=81
(<8B-/L	1AA	1e]	4d\]	.	1r	.	.	2.E/	na-	.	4d/]	.	.	2.e/	.	.
8A/J)	.	.	.	.	.	.	.	.	.	.	.	.	.	.	.	.
(<8A/L	.	.	4c#X\	.	.	.	.	.	.	.	4c#X/	.	.	.	.	.
8G#X/J)	.	.	.	.	.	.	.	.	.	.	.	.	.	.	.	.
(<8G#/L	.	.	4Bn\	.	.	.	.	.	.	.	(<4Bn/)	-chaj!	.	.	.	.
8Gn/J)	.	.	.	.	.	.	.	.	.	.	.	.	.	.	.	.
(<8G/L	.	.	4c#\	.	.	.	.	4A/	-mi!	.	4c#/)	.	.	4e/	-nie!	.
8E/J)	.	.	.	.	.	.	.	.	.	.	.	.	.	.	.	.
*v	*v	*	*	*	*	*	*	*	*	*	*	*	*	*	*	*
!!LO:LB:g=original
=82	=82	=82	=82	=82	=82	=82	=82	=82	=82	=82	=82	=82	=82	=82	=82
!	!	!	!	!	!	!LO:DY:a:rj	!	!	!	!	!	!	!	!	!
1F [<1AA [<1DD	8r	1d	.	[>1D	A-	p	[>1F	A-	.	(<1d	A-	.	[>1d	A-	.
.	8ff/L	.	.	.	.	.	.	.	.	.	.	.	.	.	.
.	8ee/	.	.	.	.	.	.	.	.	.	.	.	.	.	.
.	8dd/J	.	.	.	.	.	.	.	.	.	.	.	.	.	.
.	8cc#X/L	.	.	.	.	.	.	.	.	.	.	.	.	.	.
.	8dd/	.	.	.	.	.	.	.	.	.	.	.	.	.	.
.	8f/	.	.	.	.	.	.	.	.	.	.	.	.	.	.
.	8g/J	.	.	.	.	.	.	.	.	.	.	.	.	.	.
*	*v	*v	*	*	*	*	*	*	*	*	*	*	*	*	*
=83	=83	=83	=83	=83	=83	=83	=83	=83	=83	=83	=83	=83	=83	=83
*^	*	*	*	*	*	*	*	*	*	*	*	*	*	*
2F/	1AA_< 1DD_<	8a/L	.	1D_>	.	.	2F/]	.	.	[>1A)	.	.	2d/]	.	.
.	.	8f/	.	.	.	.	.	.	.	.	.	.	.	.	.
.	.	8d/	.	.	.	.	.	.	.	.	.	.	.	.	.
.	.	8A/J	.	.	.	.	.	.	.	.	.	.	.	.	.
2E/	.	8A/L	.	.	.	.	2E/	-men!	.	.	.	.	2c#X/	-men!	.
.	.	8c#X/	.	.	.	.	.	.	.	.	.	.	.	.	.
.	.	8e/	.	.	.	.	.	.	.	.	.	.	.	.	.
.	.	8g/J	.	.	.	.	.	.	.	.	.	.	.	.	.
*v	*v	*	*	*	*	*	*	*	*	*	*	*	*	*	*
=84	=84	=84	=84	=84	=84	=84	=84	=84	=84	=84	=84	=84	=84	=84
!LO:N:n=3:vis=2	!	!	!	!	!	!	!	!	!	!	!	!	!	!
2.F 2.AA] 2.DD/]	8g/L	.	1D_>	.	.	(>[>1F	A-	.	1A_>	.	.	(>[>1d	A-	.
.	8f/	.	.	.	.	.	.	.	.	.	.	.	.	.
.	8e/	.	.	.	.	.	.	.	.	.	.	.	.	.
.	8d/J	.	.	.	.	.	.	.	.	.	.	.	.	.
.	8c#X/L	.	.	.	.	.	.	.	.	.	.	.	.	.
.	8d/	.	.	.	.	.	.	.	.	.	.	.	.	.
4r	8F</	.	.	.	.	.	.	.	.	.	.	.	.	.
.	8G</J	.	.	.	.	.	.	.	.	.	.	.	.	.
=85	=85	=85	=85	=85	=85	=85	=85	=85	=85	=85	=85	=85	=85	=85
1DD	8A</L	.	1D]	.	.	2F/]	.	.	1A]	.	.	2d/]	.	.
.	8F</	.	.	.	.	.	.	.	.	.	.	.	.	.
.	8D</	.	.	.	.	.	.	.	.	.	.	.	.	.
.	8BB-</J	.	.	.	.	.	.	.	.	.	.	.	.	.
.	8AA</L	.	.	.	.	2E/)	-a-	.	.	.	.	2c#X/)	.	.
.	8C#X</	.	.	.	.	.	.	.	.	.	.	.	.	.
.	8E</	.	.	.	.	.	.	.	.	.	.	.	.	.
.	8G</J	.	.	.	.	.	.	.	.	.	.	.	.	.
=86	=86	=86	=86	=86	=86	=86	=86	=86	=86	=86	=86	=86	=86	=86
2DD\	8G</L	.	2D\	-men!	.	2F/	-men!	.	2A/	-men!	.	2d/	-men!	.
.	8F</	.	.	.	.	.	.	.	.	.	.	.	.	.
.	8E</	.	.	.	.	.	.	.	.	.	.	.	.	.
.	8D</J	.	.	.	.	.	.	.	.	.	.	.	.	.
2rGG	8B-</L	.	2r	.	.	2r	.	.	2r	.	.	2r	.	.
.	8A</	.	.	.	.	.	.	.	.	.	.	.	.	.
.	8G</	.	.	.	.	.	.	.	.	.	.	.	.	.
.	8F</J	.	.	.	.	.	.	.	.	.	.	.	.	.
=87	=87	=87	=87	=87	=87	=87	=87	=87	=87	=87	=87	=87	=87	=87
1rBB	8d</L	.	1r	.	.	1r	.	.	1r	.	.	1r	.	.
.	8c</	.	.	.	.	.	.	.	.	.	.	.	.	.
.	8B-</	.	.	.	.	.	.	.	.	.	.	.	.	.
.	8A</J	.	.	.	.	.	.	.	.	.	.	.	.	.
.	8f\L	.	.	.	.	.	.	.	.	.	.	.	.	.
.	8e\	.	.	.	.	.	.	.	.	.	.	.	.	.
.	8d\	.	.	.	.	.	.	.	.	.	.	.	.	.
.	8f\J	.	.	.	.	.	.	.	.	.	.	.	.	.
!!LO:PB:g=original
=88	=88	=88	=88	=88	=88	=88	=88	=88	=88	=88	=88	=88	=88	=88
*	*^	*	*	*	*	*	*	*	*	*	*	*	*	*
1r	8a\L	1rff	.	1r	.	.	1r	.	.	1r	.	.	1r	.	.
.	8b-\	.	.	.	.	.	.	.	.	.	.	.	.	.	.
.	8a\	.	.	.	.	.	.	.	.	.	.	.	.	.	.
.	8f\J	.	.	.	.	.	.	.	.	.	.	.	.	.	.
.	8d\L	.	.	.	.	.	.	.	.	.	.	.	.	.	.
.	8e\	.	.	.	.	.	.	.	.	.	.	.	.	.	.
.	8f\	.	.	.	.	.	.	.	.	.	.	.	.	.	.
.	8d\J	.	.	.	.	.	.	.	.	.	.	.	.	.	.
=89	=89	=89	=89	=89	=89	=89	=89	=89	=89	=89	=89	=89	=89	=89	=89
1rGG	8A</L	1rff	.	1r	.	.	1r	.	.	1r	.	.	1r	.	.
.	8B-</	.	.	.	.	.	.	.	.	.	.	.	.	.	.
.	8A</	.	.	.	.	.	.	.	.	.	.	.	.	.	.
.	8F</J	.	.	.	.	.	.	.	.	.	.	.	.	.	.
.	8D</L	.	.	.	.	.	.	.	.	.	.	.	.	.	.
.	8BB-</	.	.	.	.	.	.	.	.	.	.	.	.	.	.
.	8AA</	.	.	.	.	.	.	.	.	.	.	.	.	.	.
.	8FF</J	.	.	.	.	.	.	.	.	.	.	.	.	.	.
*	*v	*v	*	*	*	*	*	*	*	*	*	*	*	*	*
=90	=90	=90	=90	=90	=90	=90	=90	=90	=90	=90	=90	=90	=90	=90
*^	*	*	*	*	*	*	*	*	*	*	*	*	*	*
!	!	!	!	!	!	!LO:DY:a:rj	!	!	!LO:DY:a:rj	!	!	!LO:DY:a:rj	!	!	!LO:DY:a:rj
[<1DD	1r	1r	.	2D\	Zli-	pp	2A/	Zli-	pp	2d/	Zli-	pp	2f/	Zli-	pp
*	*	*	*	*	*ij	*	*	*ij	*	*	*ij	*	*	*	*
.	.	.	.	4D\	-tuj	.	4A/	-tuj	.	4d/	-tuj	.	4f/	-tuj	.
.	.	.	.	4D\	się	.	4A/	się	.	4d/	się	.	4f/	się	.
=91	=91	=91	=91	=91	=91	=91	=91	=91	=91	=91	=91	=91	=91	=91	=91
1DD_<	1r	1r	.	2D\	oj-	.	2A/	oj-	.	2d/	oj-	.	2f/	oj-	.
.	.	.	.	4D\	-cze!	.	4A/	-cze!	.	4d/	-cze!	.	4f/	-cze!	.
.	.	.	.	[>4D\	wy-	.	[<4A/	wy-	.	[<4d/	wy-	.	[<4f/	wy-	.
=92	=92	=92	=92	=92	=92	=92	=92	=92	=92	=92	=92	=92	=92	=92	=92
2DD/]	1r	1r	.	4D\]	.	.	4A/]	.	.	4d/]	.	.	4f/]	.	.
.	.	.	.	2D\	-słu-	.	2A/	-słu-	.	2d/	-słu-	.	2f/	-słu-	.
2r	.	.	.	.	.	.	.	.	.	.	.	.	.	.	.
.	.	.	.	8D\	-chaj	.	8A/	-chaj	.	8d/	-chaj	.	8f/	-chaj	.
.	.	.	.	8D\	nas	.	8A/	nas	.	8d/	nas	.	8f/	nas	.
*v	*v	*	*	*	*	*	*	*	*	*	*	*	*	*	*
=93	=93	=93	=93	=93	=93	=93	=93	=93	=93	=93	=93	=93	=93	=93
1r	1r	.	8D\	pa-	.	8A/	pa-	.	8d/	pa-	.	8f/	pa-	.
.	.	.	8D\	-nie!	.	8A/	-nie!	.	8d/	-nie!	.	8f/	-nie!	.
.	.	.	8D\	u-	.	8A/	u-	.	8d/	u-	.	8f/	u-	.
.	.	.	8D\	-słysz	.	8A/	-słysz	.	8d/	-słysz	.	8f/	-słysz	.
.	.	.	4D\	na-	.	4A/	na-	.	4d/	na-	.	4f/	na-	.
.	.	.	8D\	-sze	.	8A/	-sze	.	8d/	-sze	.	8f/	-sze	.
.	.	.	8D\	wo-	.	8A/	wo-	.	8d/	wo-	.	8f/	wo-	.
!!LO:LB:g=original
=94	=94	=94	=94	=94	=94	=94	=94	=94	=94	=94	=94	=94	=94	=94
*	*	*	*	*Xij	*	*	*Xij	*	*	*Xij	*	*	*	*
!	!	!	!	!	!	!	!	!	!	!	!	!LO:TX:i:a:t=piu largo.	!	!
1r	1r	.	1D	-ła-	.	1F	-ła-	.	1d	-ła-	.	1a	-ła-	.
=95	=95	=95	=95	=95	=95	=95	=95	=95	=95	=95	=95	=95	=95	=95
2r	2r	.	2D\	-nie!	.	2D/	-nie!	.	2d/	-nie!	.	2d/	-nie!	.
*ped	*	*	*	*	*	*	*	*	*	*	*	*	*	*
!	!	!LO:DY:b:rj	!	!	!	!	!	!	!	!	!	!	!	!
2A 2F 2D\	2d/	pp	2r	.	.	2r	.	.	2r	.	.	2r	.	.
=96	=96	=96	=96	=96	=96	=96	=96	=96	=96	=96	=96	=96	=96	=96
1F 1AA 1DD	1d;>	.	1r;>	.	.	1r;>	.	.	1r;>	.	.	1r;>	.	.
==	==	==	==	==	==	==	==	==	==	==	==	==	==	==
*-	*-	*-	*-	*-	*-	*-	*-	*-	*-	*-	*-	*-	*-	*-
!!!system-decoration: [(s1,s2,s3,s4)]{(s5,s6)}
!!!RDF**kern: @ = marked note, color=red
!!!RDF**kern: > = above
!!!RDF**kern: < = below
!!!ENC: Antoni Szymański
!!!END: 2021-08-28
!!!ENC: Berenika Jozajtis
!!!END: 2021-07-23
!!!YEC: Copyright 2022 Narodowy Instytut Fryderyka Chopina (https://polishscores.org)
!!!YEM: License CC-BY-4.0 (https://creativecommons.org/licenses/by/4.0)
